frontend/public/Images/Brand/p2_logo5.svg

<svg width="153" height="116" viewBox="0 0 153 116" fill="none" xmlns="http://www.w3.org/2000/svg">
<g clip-path="url(#clip0)">
<path fill-rule="evenodd" clip-rule="evenodd" d="M37.2532 96.4474C37.2532 104.867 42.1317 111.677 49.0161 114.385C54.7448 116.647 54.6045 115.053 54.6045 108.92C54.6045 107.583 54.1753 106.7 52.9453 105.998C51.7236 105.296 48.4631 104.446 48.298 98.7917C47.8027 82.1173 63.7011 82.1173 63.2141 98.7917C63.049 104.446 59.7884 105.296 58.5585 105.998C57.3368 106.7 56.8993 107.583 56.8993 108.92C56.8993 114.426 56.4536 116.407 61.5384 114.773C68.9429 112.387 74.2506 105.387 74.2506 96.5465C74.2506 85.5678 65.9629 77.3379 55.7519 77.3379H55.6529C45.4336 77.3296 37.2532 85.4605 37.2532 96.4474Z" fill="#727171"/>
<path fill-rule="evenodd" clip-rule="evenodd" d="M77.0902 96.5711C77.0902 105.552 82.5961 112.709 90.1738 115.078C94.6561 116.481 94.4745 115.565 94.4745 110.596C94.4745 109.143 94.0122 108.194 92.6833 107.434C91.1726 106.568 89.6043 106.196 89.2493 104.19C88.9934 102.737 90.5783 88.9026 90.6278 88.2917C90.6774 87.6809 90.7847 87.1196 90.8755 87.0288C90.958 86.9462 91.1149 86.9462 91.28 86.9462H91.9568V101.194C91.9568 101.648 92.3283 102.019 92.7823 102.019C93.2363 102.019 93.616 101.648 93.616 101.194V86.9462H94.8872V101.194C94.8872 101.648 95.2587 102.019 95.7127 102.019C96.1667 102.019 96.5464 101.648 96.5464 101.194V86.9462H97.8094V101.194C97.8094 101.648 98.1891 102.019 98.6431 102.019C99.0971 102.019 99.4686 101.648 99.4686 101.194V86.9462H100.145C100.319 86.9462 100.467 86.9462 100.55 87.0288C100.632 87.1196 100.74 87.6809 100.798 88.2917C100.847 88.9026 102.432 102.737 102.176 104.19C101.821 106.196 100.253 106.568 98.7422 107.434C97.4132 108.194 96.9509 109.143 96.9509 110.596C96.9509 116.093 97.2233 116.638 102.283 114.764C109.341 112.139 114.335 105.272 114.335 96.6702C114.335 85.6172 105.99 77.3213 95.7045 77.3213H95.6054C85.3366 77.3295 77.0902 85.5182 77.0902 96.5711Z" fill="#727171"/>
<path d="M1.72522 4.20169C1.72522 2.88095 2.02239 1.9069 2.62498 1.2878C3.21931 0.668703 4.14383 0.363281 5.39854 0.363281H10.8631C12.4893 0.363281 13.9091 0.619175 15.139 1.13096C16.3607 1.64275 17.376 2.36091 18.1767 3.27717C18.9774 4.19344 19.5718 5.25829 19.9515 6.47172C20.3312 7.68516 20.5293 9.01416 20.5293 10.4505C20.5293 11.8868 20.3395 13.2158 19.9515 14.4292C19.5718 15.6426 18.9774 16.7075 18.1767 17.6238C17.376 18.54 16.3607 19.2499 15.139 19.77C13.9173 20.2818 12.4893 20.5377 10.8631 20.5377H5.39854C4.14383 20.5377 3.22757 20.224 2.62498 19.6131C2.02239 18.994 1.72522 18.0282 1.72522 16.6992V4.20169ZM9.43507 15.4941C11.2098 15.4941 12.4315 15.0813 13.0919 14.2641C13.7522 13.4469 14.0907 12.1757 14.0907 10.4505C14.0907 8.7335 13.7605 7.46228 13.0919 6.63682C12.4315 5.81135 11.2098 5.40687 9.43507 5.40687H8.00701V15.4941H9.43507Z" fill="#727171"/>
<path d="M23.8889 4.20169C23.8889 2.88095 24.1861 1.9069 24.7887 1.2878C25.383 0.668703 26.3075 0.363281 27.5623 0.363281H37.8063C38.739 0.363281 39.4407 0.569648 39.9112 0.990635C40.3735 1.41162 40.6129 1.98945 40.6129 2.71586C40.6129 3.44227 40.3817 4.02009 39.9112 4.44108C39.4407 4.86207 38.739 5.06843 37.8063 5.06843H30.3276V7.89978H36.3204C37.2532 7.89978 37.9549 8.10615 38.4171 8.52713C38.8794 8.94812 39.1188 9.51769 39.1188 10.2524C39.1188 10.987 38.8876 11.5566 38.4171 11.9776C37.9466 12.3986 37.2532 12.6049 36.3204 12.6049H30.3276V15.8242H38.1117C39.0445 15.8242 39.7461 16.0389 40.2166 16.4516C40.6789 16.8726 40.9183 17.4504 40.9183 18.1768C40.9183 18.9032 40.6871 19.4811 40.2166 19.902C39.7461 20.323 39.0527 20.5294 38.1117 20.5294H27.554C26.2993 20.5294 25.3748 20.2157 24.7804 19.6049C24.1861 18.9858 23.8807 18.02 23.8807 16.691V4.20169H23.8889Z" fill="#727171"/>
<path d="M57.3038 15.3206C58.1458 15.3206 58.8144 15.5518 59.3179 16.0058C59.8215 16.4598 60.0774 17.1036 60.0774 17.9209C60.0774 18.7463 59.8215 19.3819 59.3179 19.8442C58.8144 20.2982 58.1375 20.5293 57.3038 20.5293H47.7779C46.5232 20.5293 45.607 20.2156 45.0044 19.6048C44.4018 18.9857 44.1046 18.0199 44.1046 16.6909V3.47521C44.1046 2.39385 44.3935 1.54362 44.9714 0.924521C45.5574 0.305422 46.3416 0 47.3322 0C48.3227 0 49.1069 0.305422 49.6848 0.924521C50.2626 1.54362 50.5515 2.39385 50.5515 3.47521V15.3206H57.3038Z" fill="#727171"/>
<path d="M62.7106 3.47521C62.7106 2.39385 62.9995 1.54362 63.5774 0.924521C64.1552 0.305422 64.9394 0 65.9299 0C66.9205 0 67.7047 0.305422 68.2825 0.924521C68.8603 1.54362 69.1493 2.39385 69.1493 3.47521V17.4256C69.1493 18.5069 68.8603 19.3572 68.2825 19.9763C67.7047 20.5954 66.9205 20.9008 65.9299 20.9008C64.9394 20.9008 64.1552 20.5954 63.5774 19.9763C62.9995 19.3572 62.7106 18.5069 62.7106 17.4256V3.47521Z" fill="#727171"/>
<path d="M84.5277 2.21225C84.7175 1.44456 85.0973 0.883248 85.6751 0.528298C86.2529 0.173348 86.8803 0 87.5489 0C88.3744 0 89.0843 0.255894 89.6951 0.767683C90.3059 1.27947 90.6031 1.93159 90.6031 2.71578C90.6031 3.05422 90.5701 3.3679 90.5041 3.66507C90.438 3.96223 90.3307 4.34195 90.1821 4.81246L85.5017 18.2841C85.1468 19.3489 84.6763 20.0506 84.0984 20.389C83.5206 20.7274 82.6456 20.8925 81.4652 20.8925C80.2848 20.8925 79.4098 20.7274 78.832 20.389C78.2541 20.0506 77.7836 19.3489 77.4287 18.2841L72.7648 4.82072C72.6162 4.3502 72.5089 3.97049 72.4429 3.67332C72.3768 3.37615 72.3438 3.05422 72.3438 2.72404C72.3438 1.93984 72.6492 1.28773 73.2518 0.775937C73.8627 0.255894 74.5726 0 75.398 0C76.0667 0 76.694 0.173348 77.2718 0.528298C77.8497 0.883248 78.2294 1.44456 78.4192 2.21225L81.4404 13.81H81.4982L84.5277 2.21225Z" fill="#727171"/>
<path d="M93.8884 4.20169C93.8884 2.88095 94.1856 1.9069 94.7882 1.2878C95.3825 0.668703 96.307 0.363281 97.5618 0.363281H107.814C108.747 0.363281 109.448 0.569648 109.911 0.990635C110.373 1.41162 110.612 1.98945 110.612 2.71586C110.612 3.44227 110.381 4.02009 109.911 4.44108C109.44 4.86207 108.747 5.06843 107.814 5.06843H100.335V7.89978H106.328C107.261 7.89978 107.963 8.10615 108.425 8.52713C108.895 8.94812 109.127 9.51769 109.127 10.2524C109.127 10.987 108.895 11.5566 108.425 11.9776C107.954 12.3986 107.261 12.6049 106.328 12.6049H100.335V15.8242H108.119C109.052 15.8242 109.754 16.0389 110.224 16.4516C110.695 16.8726 110.926 17.4504 110.926 18.1768C110.926 18.9032 110.695 19.4811 110.224 19.902C109.754 20.323 109.06 20.5294 108.119 20.5294H97.5618C96.307 20.5294 95.3908 20.2157 94.7882 19.6049C94.1856 18.9858 93.8884 18.02 93.8884 16.691V4.20169Z" fill="#727171"/>
<path d="M113.749 4.20169C113.749 2.85619 114.063 1.88214 114.69 1.27129C115.318 0.660449 116.316 0.363281 117.703 0.363281H124.843C127.179 0.363281 128.954 0.908088 130.168 1.98945C131.381 3.07081 131.992 4.43283 131.992 6.08376C131.992 7.37148 131.629 8.43633 130.902 9.27831C130.176 10.1203 129.177 10.6568 127.906 10.9045V10.9623C129.004 11.0365 129.87 11.3007 130.498 11.7464C131.125 12.1922 131.505 12.9186 131.629 13.9339L131.852 15.6179C131.942 16.2122 132.017 16.7405 132.058 17.1863C132.107 17.632 132.132 18.053 132.132 18.4492C132.132 19.1756 131.835 19.77 131.249 20.2322C130.663 20.6862 129.994 20.9174 129.243 20.9174C128.253 20.9174 127.444 20.6945 126.808 20.2405C126.172 19.7947 125.801 19.0931 125.685 18.1438L125.38 15.4858C125.289 14.7181 125 14.1816 124.513 13.8596C124.026 13.546 123.374 13.3809 122.557 13.3809H120.039V17.5577C120.039 18.6391 119.767 19.4728 119.23 20.0506C118.685 20.6285 117.909 20.9174 116.902 20.9174C115.895 20.9174 115.119 20.6285 114.575 20.0506C114.03 19.4728 113.766 18.6391 113.766 17.5577V4.20169H113.749ZM123.242 9.16274C124.175 9.16274 124.843 9.0059 125.256 8.70048C125.669 8.3868 125.875 7.89153 125.875 7.19813C125.875 6.50474 125.669 6.00946 125.256 5.70404C124.843 5.39862 124.175 5.24178 123.242 5.24178H120.023V9.16274H123.242Z" fill="#727171"/>
<path d="M145.538 1.96461C146.173 0.660372 147.172 0 148.534 0C149.393 0 150.119 0.305422 150.722 0.908012C151.316 1.51886 151.621 2.22876 151.621 3.05422C151.621 3.3679 151.555 3.69808 151.423 4.03653C151.291 4.37497 151.085 4.7877 150.804 5.26647L146.157 13.3065V17.4256C146.157 18.5069 145.868 19.3572 145.29 19.9763C144.712 20.5954 143.928 20.9008 142.938 20.9008C141.947 20.9008 141.163 20.5954 140.585 19.9763C140.007 19.3572 139.718 18.5069 139.718 17.4256V13.3065L135.071 5.26647C134.79 4.77944 134.584 4.36671 134.452 4.03653C134.32 3.69808 134.254 3.37615 134.254 3.05422C134.254 2.23701 134.551 1.51886 135.153 0.908012C135.748 0.305422 136.482 0 137.341 0C138.703 0 139.702 0.652118 140.337 1.96461L142.946 7.37141L145.538 1.96461Z" fill="#727171"/>
<path d="M1.5106 88.366C2.51767 85.9722 3.90445 83.9663 5.6792 82.3566C7.45395 80.747 9.45983 79.5501 11.6886 78.7659C13.9173 77.9817 16.2534 77.5854 18.705 77.5854C20.7852 77.5854 22.7333 77.8579 24.5658 78.4109C26.3901 78.964 27.9915 79.7234 29.3701 80.6975C30.7403 81.6715 31.8052 82.7694 32.5646 83.9911C33.3158 85.2127 33.6955 86.4757 33.6955 87.7882C33.6955 89.2328 33.1837 90.4214 32.1601 91.3542C31.1366 92.2952 29.8241 92.7658 28.2144 92.7658C27.1413 92.7658 26.3323 92.5842 25.7793 92.2127C25.2262 91.8412 24.5658 91.024 23.7899 89.7528C23.0552 88.5807 22.2545 87.7634 21.4043 87.3177C20.5458 86.8637 19.448 86.6408 18.1107 86.6408C16.2369 86.6408 14.6768 87.5241 13.4386 89.2823C12.2004 91.0405 11.5813 93.4674 11.5813 96.5464C11.5813 99.5924 12.1839 102.011 13.389 103.786C14.5942 105.56 16.369 106.452 18.7216 106.452C19.7947 106.452 20.6944 106.213 21.4126 105.726C22.1307 105.239 23.0635 104.215 24.2026 102.638C25.3418 101.029 26.7451 100.228 28.429 100.228C29.9726 100.228 31.2521 100.707 32.2757 101.664C33.2993 102.622 33.8111 103.835 33.8111 105.313C33.8111 106.823 33.3488 108.21 32.4325 109.481C31.508 110.753 30.2946 111.834 28.784 112.726C27.2734 113.617 25.6307 114.302 23.8559 114.789C22.0812 115.276 20.3725 115.516 18.7298 115.516C16.2121 115.516 13.8431 115.128 11.6143 114.36C9.38554 113.592 7.39617 112.428 5.65444 110.868C3.91271 109.308 2.53418 107.327 1.53537 104.908C0.503534 102.465 0 99.6832 0 96.5381C0 93.4839 0.503534 90.7599 1.5106 88.366Z" fill="#727171"/>
<path d="M140.288 81.2011C141.493 79.8639 142.451 78.9559 143.152 78.4853C143.854 78.0148 144.663 77.7837 145.563 77.7837C147.04 77.7837 148.262 78.3037 149.236 79.3438C150.21 80.3839 150.697 81.49 150.697 82.6622C150.697 83.4299 150.54 84.115 150.218 84.7011C149.896 85.2872 149.318 85.9971 148.485 86.839L143.053 92.8237L151.853 106.551C152.62 107.789 153.008 108.928 153.008 109.969C153.008 111.446 152.414 112.701 151.225 113.741C150.037 114.781 148.666 115.301 147.131 115.301C146.124 115.301 145.232 115.119 144.44 114.748C143.656 114.377 142.954 113.708 142.351 112.734L134.46 100.517L131.191 104.083V109.061C131.191 111 130.671 112.528 129.631 113.634C128.591 114.74 127.188 115.293 125.405 115.293C123.63 115.293 122.218 114.74 121.178 113.634C120.138 112.528 119.618 111 119.618 109.061V84.0242C119.618 82.0844 120.138 80.5573 121.178 79.4511C122.218 78.345 123.622 77.7919 125.405 77.7919C127.179 77.7919 128.591 78.345 129.631 79.4511C130.671 80.5573 131.191 82.0844 131.191 84.0242V91.1645L140.288 81.2011Z" fill="#727171"/>
<path d="M23.3772 42.8087H32.5069C35.8665 42.8087 37.3688 44.4596 37.3688 47.1176C37.3688 49.8251 35.8665 51.4843 32.5069 51.4843H17.4586C15.0483 51.4843 13.8431 50.2296 13.8431 47.7202V32.7792C13.8431 28.9656 15.7004 27.6118 18.606 27.6118C21.5117 27.6118 23.3689 28.9656 23.3689 32.7792V42.8087H23.3772ZM23.4845 54.943H32.0116C34.3724 54.943 35.8252 56.6517 35.8252 58.9548C35.8252 61.2578 34.3724 62.9665 32.0116 62.9665H26.1425C24.9869 62.9665 24.5906 63.4205 24.5906 64.2707C24.5906 65.121 24.9951 65.575 26.1425 65.575H32.0116C34.3724 65.575 35.8252 67.2837 35.8252 69.5867C35.8252 71.8898 34.3724 73.5985 32.0116 73.5985H23.4845C16.7157 73.5985 14.0577 69.7849 14.0577 64.2707C14.0494 58.7566 16.7074 54.943 23.4845 54.943ZM49.7591 54.943C56.5279 54.943 59.1859 58.7566 59.1859 64.2707C59.1859 69.7849 56.5279 73.5985 49.7591 73.5985H41.2403C38.8794 73.5985 37.4266 71.8898 37.4266 69.5867C37.4266 67.2837 38.8794 65.575 41.2403 65.575H47.1093C48.265 65.575 48.6612 65.121 48.6612 64.2707C48.6612 63.4205 48.2567 62.9665 47.1093 62.9665H41.2403C38.8794 62.9665 37.4266 61.2578 37.4266 58.9548C37.4266 56.6517 38.8794 54.943 41.2403 54.943H49.7591ZM50.2626 30.2698C50.2626 28.0163 51.9218 26.6543 54.6293 26.6543C56.9902 26.6543 58.6906 27.909 58.6906 30.2698V48.8263C58.6906 51.7319 56.9819 52.739 54.6293 52.739C51.6164 52.739 50.2626 51.3852 50.2626 48.8263V43.3122H47.6541V48.6777C47.6541 51.5833 45.8464 52.5904 43.4938 52.5904C40.4808 52.5904 39.2344 51.2367 39.2344 48.6777V30.2698C39.2344 28.0163 40.7863 26.6543 43.4938 26.6543C45.8546 26.6543 47.6541 27.909 47.6541 30.2698V34.7851H50.2626V30.2698Z" fill="#0084CA"/>
<path d="M98.7009 53.9444C96.3401 53.9444 94.5901 52.4916 94.5901 49.8336V31.2193C94.5901 28.5613 96.3483 27.1085 98.7009 27.1085H103.365C106.675 27.1085 107.476 28.5613 107.476 31.6733C107.476 34.9339 106.972 36.6426 104.619 36.6426V44.4185C106.98 44.4185 107.476 46.1272 107.476 49.3796C107.476 52.4916 106.675 53.9444 103.365 53.9444H98.7009ZM135.368 63.5198C138.125 63.5198 139.479 65.4266 139.479 68.1341C139.479 70.594 138.125 72.798 135.368 72.798H99.6584C97.2976 72.798 95.5476 71.0398 95.5476 68.6872V60.6637C95.5476 57.304 97.8507 55.7026 101.111 55.7026C104.52 55.7026 106.576 57.304 106.576 60.6637V63.5198H135.368ZM112.346 44.4103V36.6344C109.985 36.6344 109.49 34.9257 109.49 31.6651C109.49 28.5531 110.29 27.1003 113.601 27.1003H118.264C120.567 27.1003 122.276 28.5036 122.375 31.013H127.889V30.7653C127.889 28.2559 129.945 26.605 133.205 26.605C136.615 26.605 138.422 28.2064 138.422 30.7158V54.3984C138.422 56.9078 136.367 58.5092 133.106 58.5092C129.697 58.5092 127.889 56.9078 127.889 54.3984V50.1307H122.375C122.227 52.5906 120.518 53.9444 118.264 53.9444H113.601C110.29 53.9444 109.49 52.4916 109.49 49.3796C109.49 46.119 109.985 44.4103 112.346 44.4103ZM127.898 38.5495H122.383V42.6108H127.898V38.5495Z" fill="#0084CA"/>
</g>
<defs>
<clipPath id="clip0">
<rect width="153" height="115.738" fill="white"/>
</clipPath>
</defs>
</svg>

<svg width="153" height="116" fill="none" xmlns="http://www.w3.org/2000/svg"><g clip-path="url(#clip0)"><path fill-rule="evenodd" clip-rule="evenodd" d="M37.253 96.447c0 8.42 4.879 15.23 11.763 17.938 5.729 2.262 5.589.668 5.589-5.465 0-1.337-.43-2.22-1.66-2.922-1.221-.702-4.482-1.552-4.647-7.206-.495-16.675 15.403-16.675 14.916 0-.165 5.654-3.426 6.504-4.655 7.206-1.222.702-1.66 1.585-1.66 2.922 0 5.506-.445 7.487 4.64 5.853 7.404-2.386 12.712-9.386 12.712-18.227 0-10.978-8.288-19.208-18.5-19.208h-.098c-10.22-.008-18.4 8.123-18.4 19.11zM77.09 96.571c0 8.981 5.506 16.138 13.084 18.507 4.482 1.403 4.3.487 4.3-4.482 0-1.453-.462-2.402-1.79-3.162-1.511-.866-3.08-1.238-3.435-3.244-.256-1.453 1.33-15.287 1.379-15.898.05-.611.157-1.172.248-1.263.082-.083.239-.083.404-.083h.677v14.248c0 .454.371.825.825.825a.835.835 0 00.834-.825V86.946h1.271v14.248c0 .454.372.825.826.825a.835.835 0 00.833-.825V86.946h1.263v14.248c0 .454.38.825.834.825a.828.828 0 00.826-.825V86.946h.676c.174 0 .322 0 .405.083.082.09.19.652.248 1.263.049.61 1.634 14.445 1.378 15.898-.355 2.006-1.923 2.378-3.434 3.244-1.329.76-1.791 1.709-1.791 3.162 0 5.497.272 6.042 5.332 4.168 7.058-2.625 12.052-9.492 12.052-18.094 0-11.053-8.345-19.349-18.63-19.349h-.1c-10.268.008-18.515 8.197-18.515 19.25z" fill="#727171"/><path d="M1.725 4.202c0-1.321.297-2.295.9-2.914.594-.62 1.519-.925 2.774-.925h5.464c1.626 0 3.046.256 4.276.768 1.222.512 2.237 1.23 3.038 2.146a8.784 8.784 0 011.774 3.195c.38 1.213.578 2.542.578 3.978 0 1.437-.19 2.766-.578 3.98a8.785 8.785 0 01-1.774 3.194c-.801.916-1.816 1.626-3.038 2.146-1.222.512-2.65.768-4.276.768H5.4c-1.255 0-2.171-.314-2.774-.925-.603-.619-.9-1.585-.9-2.914V4.202zm7.71 11.292c1.775 0 2.996-.413 3.657-1.23.66-.817.999-2.088.999-3.813 0-1.718-.33-2.989-1-3.814-.66-.826-1.881-1.23-3.656-1.23H8.007v10.087h1.428zM23.889 4.202c0-1.321.297-2.295.9-2.914.594-.62 1.518-.925 2.773-.925h10.244c.933 0 1.635.207 2.105.628.462.42.702.998.702 1.725 0 .726-.231 1.304-.702 1.725-.47.421-1.172.627-2.105.627h-7.478V7.9h5.992c.933 0 1.635.206 2.097.627.462.421.702.99.702 1.725 0 .735-.231 1.305-.702 1.726-.47.42-1.164.627-2.097.627h-5.992v3.22h7.784c.932 0 1.634.214 2.105.627.462.42.701.998.701 1.725 0 .726-.23 1.304-.701 1.725-.47.421-1.164.627-2.105.627H27.554c-1.255 0-2.18-.313-2.774-.924-.594-.62-.9-1.585-.9-2.914V4.201h.009zM57.304 15.32c.842 0 1.51.232 2.014.686.504.454.76 1.098.76 1.915 0 .825-.257 1.46-.76 1.923-.504.454-1.18.685-2.014.685h-9.526c-1.255 0-2.171-.313-2.774-.924-.602-.62-.9-1.585-.9-2.914V3.475c0-1.081.29-1.931.867-2.55.586-.62 1.37-.925 2.361-.925.99 0 1.775.305 2.353.925.578.619.866 1.469.866 2.55v11.846h6.753zM62.71 3.475c0-1.081.29-1.931.867-2.55C64.155.305 64.94 0 65.93 0c.99 0 1.775.305 2.352.925.578.619.867 1.469.867 2.55v13.95c0 1.082-.289 1.932-.867 2.551-.577.62-1.361.925-2.352.925-.99 0-1.775-.306-2.353-.925-.578-.619-.866-1.47-.866-2.55V3.476zM84.528 2.212c.19-.767.57-1.329 1.147-1.684A3.518 3.518 0 0187.55 0c.825 0 1.535.256 2.146.768.61.511.908 1.164.908 1.948 0 .338-.033.652-.099.95-.066.296-.173.676-.322 1.146l-4.68 13.472c-.355 1.065-.826 1.767-1.404 2.105-.577.338-1.452.503-2.633.503-1.18 0-2.055-.165-2.633-.503-.578-.338-1.048-1.04-1.403-2.105L72.765 4.821c-.149-.47-.256-.85-.322-1.148-.066-.297-.1-.619-.1-.949 0-.784.306-1.436.909-1.948.61-.52 1.32-.776 2.146-.776.669 0 1.296.173 1.874.528.578.355.957.917 1.147 1.684L81.44 13.81h.058l3.03-11.598zM93.888 4.202c0-1.321.298-2.295.9-2.914.594-.62 1.519-.925 2.774-.925h10.252c.933 0 1.634.207 2.097.628.462.42.701.998.701 1.725 0 .726-.231 1.304-.701 1.725-.471.421-1.164.627-2.097.627h-7.479V7.9h5.993c.933 0 1.635.206 2.097.627.47.421.702.99.702 1.725 0 .735-.232 1.305-.702 1.726-.471.42-1.164.627-2.097.627h-5.993v3.22h7.784c.933 0 1.635.214 2.105.627.471.42.702.998.702 1.725 0 .726-.231 1.304-.702 1.725-.47.421-1.164.627-2.105.627H97.562c-1.255 0-2.171-.313-2.774-.924-.602-.62-.9-1.585-.9-2.914V4.201zM113.749 4.202c0-1.346.314-2.32.941-2.93.628-.612 1.626-.909 3.013-.909h7.14c2.336 0 4.111.545 5.325 1.626 1.213 1.082 1.824 2.444 1.824 4.095 0 1.287-.363 2.352-1.09 3.194-.726.842-1.725 1.379-2.996 1.627v.057c1.098.075 1.964.339 2.592.784.627.446 1.007 1.173 1.131 2.188l.223 1.684c.09.594.165 1.123.206 1.568.049.446.074.867.074 1.263 0 .727-.297 1.321-.883 1.783a3.192 3.192 0 01-2.006.685c-.99 0-1.799-.223-2.435-.677-.636-.445-1.007-1.147-1.123-2.096l-.305-2.658c-.091-.768-.38-1.304-.867-1.626-.487-.314-1.139-.48-1.956-.48h-2.518v4.178c0 1.081-.272 1.915-.809 2.493-.545.578-1.321.866-2.328.866s-1.783-.289-2.327-.866c-.545-.578-.809-1.412-.809-2.493V4.202h-.017zm9.493 4.96c.933 0 1.601-.156 2.014-.462.413-.313.619-.808.619-1.502 0-.693-.206-1.189-.619-1.494-.413-.305-1.081-.462-2.014-.462h-3.219v3.92h3.219zM145.538 1.965C146.173.66 147.172 0 148.534 0a2.98 2.98 0 012.188.908c.594.61.899 1.32.899 2.146 0 .314-.066.644-.198.983a8.941 8.941 0 01-.619 1.23l-4.647 8.04v4.119c0 1.08-.289 1.931-.867 2.55-.578.62-1.362.925-2.352.925-.991 0-1.775-.306-2.353-.925-.578-.619-.867-1.47-.867-2.55v-4.12l-4.647-8.04a9.982 9.982 0 01-.619-1.23 2.675 2.675 0 01-.198-.982c0-.817.297-1.535.899-2.146A2.967 2.967 0 01137.341 0c1.362 0 2.361.652 2.996 1.965l2.609 5.406 2.592-5.406zM1.51 88.366c1.008-2.394 2.394-4.4 4.17-6.01a17.528 17.528 0 016.009-3.59 20.975 20.975 0 017.016-1.18c2.08 0 4.028.272 5.86.825 1.825.553 3.426 1.312 4.805 2.287 1.37.974 2.435 2.071 3.195 3.293.75 1.222 1.13 2.485 1.13 3.797 0 1.445-.511 2.633-1.535 3.566-1.023.941-2.336 1.412-3.946 1.412-1.073 0-1.882-.182-2.435-.553-.553-.372-1.213-1.189-1.99-2.46-.734-1.172-1.535-1.99-2.385-2.435-.858-.454-1.956-.677-3.293-.677-1.874 0-3.434.883-4.672 2.641-1.239 1.758-1.858 4.185-1.858 7.264 0 3.046.603 5.465 1.808 7.24 1.205 1.774 2.98 2.666 5.333 2.666 1.073 0 1.972-.239 2.69-.726.719-.487 1.652-1.511 2.79-3.088 1.14-1.609 2.543-2.41 4.227-2.41 1.544 0 2.823.479 3.847 1.436 1.023.958 1.535 2.171 1.535 3.649 0 1.51-.462 2.897-1.379 4.168-.924 1.272-2.137 2.353-3.648 3.245a20.129 20.129 0 01-4.928 2.063c-1.775.487-3.484.727-5.126.727-2.518 0-4.887-.388-7.116-1.156a17.284 17.284 0 01-5.96-3.492c-1.741-1.56-3.12-3.541-4.119-5.96C.504 102.465 0 99.683 0 96.538c0-3.054.504-5.778 1.51-8.172zM140.288 81.201c1.205-1.337 2.163-2.245 2.864-2.716.702-.47 1.511-.701 2.411-.701 1.477 0 2.699.52 3.673 1.56.974 1.04 1.461 2.146 1.461 3.318 0 .768-.157 1.453-.479 2.04-.322.585-.9 1.295-1.733 2.137l-5.432 5.985 8.8 13.727c.767 1.238 1.155 2.377 1.155 3.418 0 1.477-.594 2.732-1.783 3.772-1.188 1.04-2.559 1.56-4.094 1.56-1.007 0-1.899-.182-2.691-.553-.784-.371-1.486-1.04-2.089-2.014l-7.891-12.217-3.269 3.566v4.978c0 1.939-.52 3.467-1.56 4.573-1.04 1.106-2.443 1.659-4.226 1.659-1.775 0-3.187-.553-4.227-1.659-1.04-1.106-1.56-2.634-1.56-4.573V84.024c0-1.94.52-3.467 1.56-4.573 1.04-1.106 2.444-1.66 4.227-1.66 1.774 0 3.186.554 4.226 1.66 1.04 1.106 1.56 2.633 1.56 4.573v7.14l9.097-9.963z" fill="#727171"/><path d="M23.377 42.809h9.13c3.36 0 4.862 1.65 4.862 4.309 0 2.707-1.502 4.366-4.862 4.366H17.459c-2.41 0-3.616-1.254-3.616-3.764V32.78c0-3.814 1.857-5.168 4.763-5.168 2.906 0 4.763 1.354 4.763 5.167v10.03h.008zm.108 12.134h8.527c2.36 0 3.813 1.709 3.813 4.012 0 2.303-1.453 4.012-3.813 4.012h-5.87c-1.155 0-1.551.453-1.551 1.304 0 .85.404 1.304 1.551 1.304h5.87c2.36 0 3.813 1.709 3.813 4.012 0 2.303-1.453 4.011-3.813 4.011h-8.527c-6.77 0-9.427-3.813-9.427-9.327-.009-5.514 2.65-9.328 9.427-9.328zm26.274 0c6.769 0 9.427 3.814 9.427 9.328 0 5.514-2.658 9.328-9.427 9.328H41.24c-2.36 0-3.813-1.71-3.813-4.012 0-2.303 1.452-4.012 3.813-4.012h5.87c1.155 0 1.551-.454 1.551-1.304 0-.85-.404-1.304-1.552-1.304H41.24c-2.36 0-3.813-1.71-3.813-4.012 0-2.303 1.452-4.012 3.813-4.012h8.52zm.504-24.673c0-2.254 1.659-3.616 4.366-3.616 2.361 0 4.062 1.255 4.062 3.616v18.556c0 2.906-1.71 3.913-4.062 3.913-3.013 0-4.366-1.354-4.366-3.913v-5.514h-2.609v5.366c0 2.905-1.808 3.912-4.16 3.912-3.013 0-4.26-1.353-4.26-3.912V30.27c0-2.254 1.552-3.616 4.26-3.616 2.36 0 4.16 1.255 4.16 3.616v4.515h2.609V30.27zM98.7 53.944c-2.36 0-4.11-1.452-4.11-4.11V31.219c0-2.658 1.758-4.11 4.11-4.11h4.665c3.31 0 4.111 1.452 4.111 4.564 0 3.26-.504 4.97-2.857 4.97v7.776c2.361 0 2.857 1.708 2.857 4.96 0 3.113-.801 4.565-4.111 4.565h-4.664zm36.668 9.576c2.757 0 4.111 1.907 4.111 4.614 0 2.46-1.354 4.664-4.111 4.664h-35.71c-2.36 0-4.11-1.758-4.11-4.11v-8.024c0-3.36 2.303-4.961 5.563-4.961 3.409 0 5.465 1.601 5.465 4.96v2.857h28.792zm-23.022-19.11v-7.776c-2.361 0-2.856-1.708-2.856-4.969 0-3.112.8-4.565 4.111-4.565h4.663c2.303 0 4.012 1.404 4.111 3.913h5.514v-.248c0-2.51 2.056-4.16 5.316-4.16 3.41 0 5.217 1.601 5.217 4.11v23.683c0 2.51-2.055 4.111-5.316 4.111-3.409 0-5.217-1.601-5.217-4.11V50.13h-5.514c-.148 2.46-1.857 3.813-4.111 3.813h-4.663c-3.311 0-4.111-1.452-4.111-4.564 0-3.261.495-4.97 2.856-4.97zm15.552-5.86h-5.515v4.06h5.515v-4.06z" fill="#0084CA"/></g><defs><clipPath id="clip0"><path fill="#fff" d="M0 0h153v115.738H0z"/></clipPath></defs></svg>
